X: 1
T: Kelly's Fancy
R: hornpipe
M: 4/4
L: 1/8
K: Gmaj
GFGAB3c|dgge dBGB|cedc BGAB|cBAG FDEF|
GFGAB3c|dgge dBGB|cedc BGFG|AGGFG2z2:|
|:B3d gfed|dccBc3B|A3c fedc|(3BcB BA BDEF|
GFGAB3c|dgge dBGB|cedc BGFG|AGGFG2z2:|

